Newaita-dark/mimetypes/24/text-x-sass.svg

<?xml version="1.0" encoding="UTF-8"?>
<svg xmlns="http://www.w3.org/2000/svg" xmlns:xlink="http://www.w3.org/1999/xlink" width="24px" height="24px" viewBox="0 0 24 24" version="1.1">
<defs>
<linearGradient id="linear0" gradientUnits="userSpaceOnUse" x1="254" y1="233.5" x2="254" y2="254.666672" gradientTransform="matrix(0.0468795,0,0,0.0468795,0.496141,10.079089)">
<stop offset="0" style="stop-color:rgb(0%,0%,0%);stop-opacity:0.27451;"/>
<stop offset="1" style="stop-color:rgb(0%,0%,0%);stop-opacity:0;"/>
</linearGradient>
<radialGradient id="radial0" gradientUnits="userSpaceOnUse" cx="450.908936" cy="189.579361" fx="450.908936" fy="189.579361" r="21.166656" gradientTransform="matrix(0.000000130628,-0.0585994,-0.105479,-0.0000000761539,37.113426,47.696502)">
<stop offset="0" style="stop-color:rgb(0%,0%,0%);stop-opacity:0.313726;"/>
<stop offset="0.222222" style="stop-color:rgb(0%,0%,0%);stop-opacity:0.27451;"/>
<stop offset="1" style="stop-color:rgb(0%,0%,0%);stop-opacity:0;"/>
</radialGradient>
<radialGradient id="radial1" gradientUnits="userSpaceOnUse" cx="450.908936" cy="189.579361" fx="450.908936" fy="189.579361" r="21.166656" gradientTransform="matrix(-0.000000130628,0.0585994,0.105479,0.0000000761539,-13.794788,-5.645608)">
<stop offset="0" style="stop-color:rgb(0%,0%,0%);stop-opacity:0.313726;"/>
<stop offset="0.222222" style="stop-color:rgb(0%,0%,0%);stop-opacity:0.27451;"/>
<stop offset="1" style="stop-color:rgb(0%,0%,0%);stop-opacity:0;"/>
</radialGradient>
<radialGradient id="radial2" gradientUnits="userSpaceOnUse" cx="450.908936" cy="189.579361" fx="450.908936" fy="189.579361" r="21.166656" gradientTransform="matrix(-0.000000130628,-0.0585994,0.105479,-0.0000000761539,-13.794788,47.696502)">
<stop offset="0" style="stop-color:rgb(0%,0%,0%);stop-opacity:0.313726;"/>
<stop offset="0.222222" style="stop-color:rgb(0%,0%,0%);stop-opacity:0.27451;"/>
<stop offset="1" style="stop-color:rgb(0%,0%,0%);stop-opacity:0;"/>
</radialGradient>
<radialGradient id="radial3" gradientUnits="userSpaceOnUse" cx="450.908936" cy="189.579361" fx="450.908936" fy="189.579361" r="21.166656" gradientTransform="matrix(0.000000130628,0.0585994,-0.105479,0.0000000761539,37.113426,-5.645609)">
<stop offset="0" style="stop-color:rgb(0%,0%,0%);stop-opacity:0.313726;"/>
<stop offset="0.222222" style="stop-color:rgb(0%,0%,0%);stop-opacity:0.27451;"/>
<stop offset="1" style="stop-color:rgb(0%,0%,0%);stop-opacity:0;"/>
</radialGradient>
<linearGradient id="linear1" gradientUnits="userSpaceOnUse" x1="940" y1="1695.118164" x2="940" y2="175.118118" gradientTransform="matrix(0.0124035,0,0,0.0124035,0,0.00000000000000141)">
<stop offset="0" style="stop-color:rgb(95.686275%,56.078434%,69.411767%);stop-opacity:1;"/>
<stop offset="1" style="stop-color:rgb(97.254902%,73.333335%,81.568629%);stop-opacity:1;"/>
</linearGradient>
<linearGradient id="linear2" gradientUnits="userSpaceOnUse" x1="249.189423" y1="233.5" x2="249.189423" y2="254.666687" gradientTransform="matrix(0.0224206,0,0,0.082039,11.281817,-12.270683)">
<stop offset="0" style="stop-color:rgb(0%,0%,0%);stop-opacity:0.27451;"/>
<stop offset="1" style="stop-color:rgb(0%,0%,0%);stop-opacity:0;"/>
</linearGradient>
<linearGradient id="linear3" gradientUnits="userSpaceOnUse" x1="338.666656" y1="233.5" x2="338.666656" y2="-168.666672" gradientTransform="matrix(0.0468795,0,0,0.0468795,0,10.079087)">
<stop offset="0" style="stop-color:rgb(92.54902%,25.098041%,47.843137%);stop-opacity:1;"/>
<stop offset="1" style="stop-color:rgb(94.117647%,38.431373%,57.254905%);stop-opacity:1;"/>
</linearGradient>
<linearGradient id="linear4" gradientUnits="userSpaceOnUse" x1="248.708344" y1="233.5" x2="243.416672" y2="-168.666672" gradientTransform="matrix(1.141048,0,0,1.141048,-31.893377,-8.591855)">
<stop offset="0" style="stop-color:rgb(92.54902%,25.098041%,47.843137%);stop-opacity:1;"/>
<stop offset="1" style="stop-color:rgb(94.117647%,38.431373%,57.254905%);stop-opacity:1;"/>
</linearGradient>
</defs>
<g id="surface1">
<path style=" stroke:none;fill-rule:nonzero;fill:url(#linear0);" d="M 5.953125 21.027344 L 17.363281 21.027344 L 17.363281 22.019531 L 5.953125 22.019531 Z M 5.953125 21.027344 "/>
<path style=" stroke:none;fill-rule:nonzero;fill:url(#radial0);" d="M 17.363281 21.027344 L 19.347656 21.027344 L 19.347656 20.03125 L 17.363281 20.03125 Z M 17.363281 21.027344 "/>
<path style=" stroke:none;fill-rule:nonzero;fill:url(#radial1);" d="M 5.953125 21.027344 L 3.96875 21.027344 L 3.96875 22.019531 L 5.953125 22.019531 Z M 5.953125 21.027344 "/>
<path style=" stroke:none;fill-rule:nonzero;fill:url(#radial2);" d="M 5.953125 21.027344 L 3.96875 21.027344 L 3.96875 20.03125 L 5.953125 20.03125 Z M 5.953125 21.027344 "/>
<path style=" stroke:none;fill-rule:nonzero;fill:url(#radial3);" d="M 17.363281 21.027344 L 19.347656 21.027344 L 19.347656 22.019531 L 17.363281 22.019531 Z M 17.363281 21.027344 "/>
<path style=" stroke:none;fill-rule:nonzero;fill:url(#linear1);" d="M 13.90625 2.171875 L 4.960938 2.171875 C 4.410156 2.171875 3.96875 2.613281 3.96875 3.164062 L 3.96875 20.03125 C 3.96875 20.582031 4.410156 21.027344 4.960938 21.027344 L 18.355469 21.027344 C 18.90625 21.027344 19.347656 20.582031 19.347656 20.03125 L 19.347656 7.613281 Z M 13.90625 2.171875 "/>
<path style=" stroke:none;fill-rule:nonzero;fill:url(#linear2);" d="M 13.890625 6.886719 L 18.605469 6.886719 L 19.347656 7.628906 L 19.347656 8.621094 L 13.890625 8.621094 Z M 13.890625 6.886719 "/>
<path style=" stroke:none;fill-rule:nonzero;fill:rgb(0%,0%,0%);fill-opacity:0.235294;" d="M 3.96875 19.648438 L 3.96875 20.03125 C 3.96875 20.582031 4.410156 21.027344 4.960938 21.027344 L 18.355469 21.027344 C 18.90625 21.027344 19.347656 20.582031 19.347656 20.03125 L 19.347656 19.648438 C 19.347656 20.199219 18.90625 20.640625 18.355469 20.640625 L 4.960938 20.640625 C 4.410156 20.640625 3.96875 20.199219 3.96875 19.648438 Z M 3.96875 19.648438 "/>
<path style=" stroke:none;fill-rule:nonzero;fill:rgb(100%,100%,100%);fill-opacity:0.392157;" d="M 4.960938 2.171875 C 4.410156 2.171875 3.96875 2.613281 3.96875 3.164062 L 3.96875 3.535156 C 3.96875 2.988281 4.410156 2.542969 4.960938 2.542969 L 13.90625 2.542969 L 19.347656 7.988281 L 19.347656 7.613281 L 13.90625 2.171875 Z M 4.960938 2.171875 "/>
<path style=" stroke:none;fill-rule:nonzero;fill:url(#linear3);" d="M 19.347656 7.613281 L 13.90625 2.171875 L 13.90625 6.621094 C 13.90625 7.171875 14.347656 7.613281 14.898438 7.613281 Z M 19.347656 7.613281 "/>
<path style=" stroke:none;fill-rule:nonzero;fill:rgb(0%,0%,0%);fill-opacity:0.235294;" d="M 13.90625 6.390625 L 13.90625 6.621094 C 13.90625 7.171875 14.347656 7.613281 14.898438 7.613281 L 19.347656 7.613281 L 19.117188 7.382812 L 14.898438 7.382812 C 14.347656 7.382812 13.90625 6.9375 13.90625 6.390625 Z M 13.90625 6.390625 "/>
<path style=" stroke:none;fill-rule:nonzero;fill:rgb(100%,100%,100%);fill-opacity:0.392157;" d="M 13.90625 2.171875 L 13.90625 2.542969 L 18.976562 7.613281 L 19.347656 7.613281 Z M 13.90625 2.171875 "/>
<path style=" stroke:none;fill-rule:nonzero;fill:rgb(12.941177%,12.941177%,12.941177%);fill-opacity:1;" d="M 13.90625 2.101562 C 13.867188 2.101562 13.835938 2.132812 13.835938 2.171875 L 13.835938 6.621094 C 13.835938 7.210938 14.3125 7.683594 14.898438 7.683594 L 19.347656 7.683594 C 19.378906 7.683594 19.402344 7.667969 19.414062 7.640625 C 19.425781 7.617188 19.417969 7.585938 19.398438 7.566406 L 13.957031 2.121094 C 13.941406 2.109375 13.925781 2.101562 13.90625 2.101562 Z M 13.976562 2.339844 L 19.179688 7.542969 L 14.898438 7.542969 C 14.386719 7.542969 13.976562 7.132812 13.976562 6.621094 Z M 13.976562 2.339844 "/>
<path style=" stroke:none;fill-rule:nonzero;fill:rgb(12.941177%,12.941177%,12.941177%);fill-opacity:1;" d="M 4.960938 2.101562 C 4.375 2.101562 3.898438 2.578125 3.898438 3.164062 L 3.898438 20.03125 C 3.898438 20.621094 4.375 21.097656 4.960938 21.097656 L 18.355469 21.097656 C 18.945312 21.097656 19.417969 20.621094 19.417969 20.03125 L 19.417969 7.613281 C 19.417969 7.597656 19.414062 7.578125 19.398438 7.566406 L 13.957031 2.121094 C 13.941406 2.109375 13.925781 2.101562 13.90625 2.101562 Z M 4.960938 2.242188 L 13.878906 2.242188 L 19.277344 7.644531 L 19.277344 20.03125 C 19.277344 20.546875 18.871094 20.957031 18.355469 20.957031 L 4.960938 20.957031 C 4.449219 20.957031 4.039062 20.546875 4.039062 20.03125 L 4.039062 3.164062 C 4.039062 2.652344 4.449219 2.242188 4.960938 2.242188 Z M 4.960938 2.242188 "/>
<path style="fill-rule:nonzero;fill:url(#linear4);stroke-width:3;stroke-linecap:butt;stroke-linejoin:miter;stroke:rgb(12.941177%,12.941177%,12.941177%);stroke-opacity:1;stroke-miterlimit:4;" d="M 324.968967 52.641108 C 317.969635 52.724434 311.886883 54.307616 306.72071 56.724052 C 304.887551 53.14106 302.971068 50.058022 302.721092 47.724911 C 302.304465 45.058499 301.887838 43.391991 302.304465 40.142302 C 302.721092 36.975937 304.720901 32.393042 304.720901 32.05974 C 304.720901 31.726439 304.304274 30.059931 300.22133 29.976606 C 296.221712 29.893281 292.722046 30.726534 292.30542 31.809764 C 291.972118 32.809669 291.138864 35.059454 290.638912 37.47589 C 289.972309 40.975556 282.556351 53.474362 278.390082 59.973741 C 276.97355 57.47398 275.806995 55.224195 275.557019 53.391037 C 275.223717 50.724625 274.807091 49.058117 275.223717 45.891753 C 275.640344 42.642063 277.640153 38.059167 277.640153 37.725866 C 277.556828 37.392564 277.223526 35.726057 273.140583 35.726057 C 269.140965 35.642731 265.641299 36.475985 265.224672 37.47589 C 264.808045 38.475794 264.391419 40.89223 263.558165 43.142015 C 262.724911 45.475126 252.892517 66.30647 250.392755 71.722619 C 249.059549 74.472357 247.892994 76.638817 247.05974 78.138673 C 246.309812 79.63853 247.05974 78.305324 246.976415 78.471975 C 246.309812 79.721855 245.893185 80.388458 245.893185 80.388458 L 245.893185 80.471784 C 245.309907 81.471688 244.72663 82.304942 244.476654 82.304942 C 244.310003 82.304942 243.893376 79.805181 244.559979 76.38884 C 245.97651 69.139533 249.559502 57.890607 249.476176 57.47398 C 249.476176 57.307329 250.142779 55.30752 247.226391 54.307616 C 244.393328 53.307711 243.310098 54.974219 243.060122 54.974219 C 242.893471 54.974219 242.643495 55.640822 242.643495 55.640822 C 242.643495 55.640822 245.80986 42.892039 236.560743 42.892039 C 230.811292 42.892039 222.812056 48.974792 218.812438 54.474266 C 216.312677 55.724147 210.979852 58.55721 205.313727 61.473598 C 203.147267 62.556828 200.897482 63.806709 198.814348 64.889939 L 198.397721 64.389986 C 187.148795 53.057735 166.400776 44.975174 167.23403 29.643304 C 167.567331 24.060504 169.650466 9.395238 207.146885 -8.436393 C 237.810624 -23.018333 262.474935 -19.018715 266.724529 -10.1029 C 272.807282 2.562557 253.55912 26.226964 221.645501 29.643304 C 209.479996 30.893185 203.063942 26.47694 201.48076 24.727107 C 199.814252 22.977274 199.564276 22.893949 198.897673 23.22725 C 197.897768 23.810528 198.564371 25.39371 198.897673 26.310289 C 199.897577 28.6434 203.81387 32.809669 210.4799 34.892803 C 216.312677 36.725961 230.561316 37.725866 247.809669 31.393137 C 267.141156 24.31048 282.306374 4.479041 277.890129 -12.102709 C 273.307234 -28.934435 243.976701 -34.517235 216.229351 -25.101468 C 199.730927 -19.518668 181.899296 -10.769503 168.983863 0.729399 C 153.735319 14.311435 151.235558 26.226964 152.318788 31.143161 C 155.818453 48.724816 181.316019 60.223717 191.481714 68.722906 C 190.981762 68.972882 190.565135 69.222858 190.065183 69.472834 C 184.982335 71.88927 165.567522 81.555014 160.734651 91.804035 C 155.235176 103.386262 161.567904 111.7188 165.817499 112.80203 C 178.899583 116.301696 192.314968 110.052292 199.564276 99.803271 C 206.813584 89.470924 205.98033 76.138864 202.647315 70.056112 L 202.480664 69.806136 L 206.480282 67.639676 C 209.063369 66.139819 211.646455 64.806613 213.896241 63.640058 C 212.64636 66.889748 211.729781 70.722715 211.229829 76.38884 C 210.729876 82.971545 213.562939 91.470734 217.229256 94.803749 C 218.895763 96.303605 220.895572 96.303605 222.062127 96.303605 C 226.395047 96.303605 228.311531 92.887265 230.47799 88.804321 C 233.144402 83.888124 235.560838 78.138673 235.560838 78.138673 C 235.560838 78.138673 232.561125 93.720519 240.643686 93.720519 C 243.560075 93.720519 246.476463 90.054202 247.809669 88.221044 L 247.809669 88.304369 C 247.809669 88.304369 247.892994 88.137718 248.059645 87.887742 C 248.392946 87.471115 248.559597 87.221139 248.559597 87.221139 L 248.559597 87.137814 C 249.726152 85.138005 252.392564 80.72176 256.308857 73.389127 C 261.30838 63.890034 266.224577 51.974505 266.224577 51.974505 C 266.224577 51.974505 266.641204 54.890893 268.14106 59.64044 C 268.974314 62.556828 270.890798 65.639867 272.307329 68.63958 C 271.140774 70.222763 270.474171 71.139342 270.474171 71.139342 L 270.474171 71.222667 C 269.557592 72.389222 268.474362 73.639103 267.391132 74.972309 C 263.391514 79.471879 258.558642 84.721378 257.975365 86.221235 C 257.225436 87.971068 257.392087 89.220948 258.808618 90.304178 C 259.891848 91.054107 261.808332 91.220757 263.808141 91.054107 C 267.391132 90.80413 269.890893 89.970877 271.140774 89.470924 C 273.140583 88.804321 275.307043 87.721092 277.473503 86.221235 C 281.389795 83.471497 283.806231 79.555205 283.556255 74.305706 C 283.47293 71.472643 282.473025 68.63958 281.30647 65.889843 C 281.639771 65.473216 281.973073 64.973264 282.306374 64.389986 C 288.555778 55.807473 293.305324 46.30838 293.305324 46.30838 C 293.305324 46.30838 293.805276 49.224768 295.221808 53.974314 C 295.971736 56.39075 297.471593 59.057162 298.804799 61.723574 C 292.972023 66.223145 289.305706 71.472643 288.055825 74.888984 C 285.80604 81.221712 287.555873 84.1381 290.972214 84.804703 C 292.555396 85.138005 294.721855 84.388077 296.388363 83.721474 C 298.388172 83.138196 300.887933 82.054966 303.137718 80.388458 C 307.054011 77.638721 310.803653 73.805754 310.637002 68.63958 C 310.553677 66.223145 309.887074 63.890034 308.970495 61.640249 C 313.886692 59.64044 320.302746 58.55721 328.385307 59.473789 C 345.883636 61.473598 349.299977 71.805945 348.633374 76.138864 C 347.966771 80.471784 344.300454 82.88822 343.133899 83.638148 C 341.884018 84.304751 341.550717 84.638053 341.634042 85.138005 C 341.800693 85.887933 342.300645 85.887933 343.383875 85.721283 C 344.883732 85.554632 352.549667 82.221617 352.882968 74.222381 C 353.38292 63.890034 343.133899 52.724434 324.968967 52.807759 Z M 190.315159 95.886978 C 184.565708 101.969731 176.483147 104.219516 172.983481 102.303032 C 169.233839 100.219898 170.733696 91.387408 177.816353 84.971354 C 182.149272 81.055061 187.732072 77.47207 191.398389 75.305611 C 192.231643 74.805658 193.481523 74.05573 194.98138 73.222476 C 195.231356 73.055825 195.398007 72.9725 195.398007 72.9725 C 195.647983 72.889175 195.981285 72.639198 196.314586 72.472548 C 198.897673 81.638339 196.397912 89.637575 190.315159 95.886978 Z M 232.477799 68.556255 C 230.47799 73.305802 226.228396 85.304656 223.728635 84.554727 C 221.562175 84.054775 220.228969 74.972309 223.312008 65.973168 C 224.89519 61.473598 228.228205 56.057449 230.144689 53.974314 C 233.311053 50.641299 236.810719 49.474744 237.643973 50.891275 C 238.643877 52.641108 233.72768 65.639867 232.477799 68.556255 Z M 267.307807 84.471402 C 266.474553 84.888029 265.641299 85.138005 265.307998 84.888029 C 265.058022 84.804703 265.641299 84.221426 265.641299 84.221426 C 265.641299 84.221426 269.974219 79.805181 271.724052 77.722046 C 272.723956 76.555491 273.890511 75.13896 275.140392 73.555778 L 275.140392 73.972405 C 275.140392 79.388554 269.724243 82.971545 267.307807 84.471402 Z M 294.138578 78.638626 C 293.471975 78.138673 293.5553 76.805467 295.72176 72.472548 C 296.555014 70.722715 298.388172 67.806327 301.637862 65.139915 C 302.054489 66.223145 302.304465 67.306374 302.221139 68.306279 C 302.221139 75.055634 297.221617 77.555396 294.138578 78.638626 Z M 294.138578 78.638626 " transform="matrix(0.0468795,0,0,0.0468795,0,10.079087)"/>
</g>
</svg>

<svg height="32" viewBox="0 0 24 24" width="32" xmlns="http://www.w3.org/2000/svg" xmlns:xlink="http://www.w3.org/1999/xlink"><linearGradient id="a"><stop offset="0" stop-opacity=".275"/><stop offset="1" stop-opacity="0"/></linearGradient><linearGradient id="b" gradientUnits="userSpaceOnUse" x1="12.40352" x2="12.40352" xlink:href="#a" y1="21.02648" y2="22.01878896"/><linearGradient id="c"><stop offset="0" stop-opacity=".314"/><stop offset=".222" stop-opacity=".275"/><stop offset="1" stop-opacity="0"/></linearGradient><radialGradient id="d" cx="450.909" cy="189.579" gradientTransform="matrix(0 -.0586 -.10548 0 37.113 47.697)" gradientUnits="userSpaceOnUse" r="21.167" xlink:href="#c"/><radialGradient id="e" cx="450.909" cy="189.579" gradientTransform="matrix(0 .0586 .10548 0 -13.795 -5.646)" gradientUnits="userSpaceOnUse" r="21.167" xlink:href="#c"/><radialGradient id="f" cx="450.909" cy="189.579" gradientTransform="matrix(0 -.0586 .10548 0 -13.795 47.697)" gradientUnits="userSpaceOnUse" r="21.167" xlink:href="#c"/><radialGradient id="g" cx="450.909" cy="189.579" gradientTransform="matrix(0 .0586 -.10548 0 37.113 -5.646)" gradientUnits="userSpaceOnUse" r="21.167" xlink:href="#c"/><linearGradient id="h" gradientUnits="userSpaceOnUse" x1="11.656" x2="11.656" y1="21.0194632" y2="2.1714632"><stop offset="0" stop-color="#f48fb1"/><stop offset="1" stop-color="#f8bbd0"/></linearGradient><linearGradient id="i" gradientTransform="matrix(.02242 0 0 .08204 11.282 -12.27)" gradientUnits="userSpaceOnUse" x1="249.189" x2="249.189" xlink:href="#a" y1="233.5" y2="254.667"/><linearGradient id="j"><stop offset="0" stop-color="#ec407a"/><stop offset="1" stop-color="#f06292"/></linearGradient><linearGradient id="k" gradientUnits="userSpaceOnUse" x1="15.87670896" x2="15.87670896" xlink:href="#j" y1="21.02648" y2="2.17289104"/><linearGradient id="l" gradientUnits="userSpaceOnUse" x1="251.8952634" x2="245.85796785" xlink:href="#j" y1="257.843175" y2="-201.04948035"/><path d="m5.953 21.027h11.41v.993h-11.41zm0 0" fill="url(#b)"/><path d="m17.363 21.027h1.985v-.996h-1.985zm0 0" fill="url(#d)"/><path d="m5.953 21.027h-1.983v.993h1.984zm0 0" fill="url(#e)"/><path d="m5.953 21.027h-1.983v-.996h1.984zm0 0" fill="url(#f)"/><path d="m17.363 21.027h1.985v.993h-1.985zm0 0" fill="url(#g)"/><path d="m13.906 2.172h-8.945a.989.989 0 0 0 -.992.992v16.867c0 .551.441.996.992.996h13.394c.551 0 .993-.445.993-.996v-12.418zm0 0" fill="url(#h)"/><path d="m13.89 6.887h4.715l.743.742v.992h-5.458zm0 0" fill="url(#i)"/><path d="m3.969 19.648v.383c0 .551.441.996.992.996h13.394c.551 0 .993-.445.993-.996v-.383c0 .551-.442.993-.993.993h-13.394a.989.989 0 0 1 -.992-.993zm0 0" fill-opacity=".235"/><path d="m4.96 2.172a.989.989 0 0 0 -.991.992v.371c0-.547.441-.992.992-.992h8.945l5.442 5.445v-.375l-5.442-5.441zm0 0" fill="#fff" fill-opacity=".392"/><path d="m19.348 7.613-5.442-5.441v4.45c0 .55.442.991.992.991zm0 0" fill="url(#k)"/><path d="m13.906 6.39v.231c0 .55.442.992.992.992h4.45l-.23-.23h-4.22a.991.991 0 0 1 -.992-.992zm0 0" fill-opacity=".235"/><path d="m13.906 2.172v.371l5.07 5.07h.372zm0 0" fill="#fff" fill-opacity=".392"/><path d="m13.906 2.102a.07.07 0 0 0 -.07.07v4.45c0 .589.476 1.062 1.062 1.062h4.45a.068.068 0 0 0 .066-.043c.012-.024.004-.055-.016-.075l-5.441-5.445a.082.082 0 0 0 -.05-.02zm.07.238 5.204 5.203h-4.282a.919.919 0 0 1 -.921-.922zm0 0" fill="#212121"/><path d="m4.96 2.102c-.585 0-1.062.476-1.062 1.062v16.867c0 .59.477 1.067 1.063 1.067h13.394c.59 0 1.063-.477 1.063-1.067v-12.418c0-.015-.004-.035-.02-.047l-5.441-5.445a.082.082 0 0 0 -.05-.02zm0 .14h8.919l5.398 5.403v12.385a.917.917 0 0 1 -.922.926h-13.394a.92.92 0 0 1 -.922-.926v-16.866c0-.512.41-.922.922-.922zm0 0" fill="#212121"/><path d="m324.969 52.641c-7 .083-13.082 1.667-18.248 4.083-1.833-3.583-3.75-6.666-4-9-.417-2.666-.833-4.332-.417-7.582.417-3.166 2.417-7.749 2.417-8.082 0-.334-.417-2-4.5-2.083-4-.084-7.499.75-7.916 1.833-.333 1-1.166 3.25-1.666 5.666-.667 3.5-8.083 15.998-12.249 22.498-1.416-2.5-2.583-4.75-2.833-6.583-.333-2.666-.75-4.333-.333-7.5.416-3.249 2.416-7.832 2.416-8.165-.083-.333-.416-2-4.5-2-3.999-.083-7.499.75-7.915 1.75-.417 1-.834 3.416-1.667 5.666-.833 2.333-10.665 23.164-13.165 28.58-1.333 2.75-2.5 4.917-3.333 6.417-.75 1.5 0 .166-.084.333a35.736 35.736 0 0 1 -1.083 1.916v.084c-.583 1-1.166 1.833-1.416 1.833-.167 0-.584-2.5.083-5.916 1.417-7.25 5-18.498 4.916-18.915 0-.167.667-2.166-2.25-3.166-2.833-1-3.916.666-4.166.666-.167 0-.417.667-.417.667s3.167-12.749-6.082-12.749c-5.75 0-13.749 6.083-17.749 11.582-2.5 1.25-7.832 4.083-13.498 7-2.167 1.083-4.417 2.333-6.5 3.416l-.416-.5c-11.25-11.332-31.997-19.415-31.164-34.747.333-5.582 2.416-20.248 39.913-38.08 30.664-14.581 55.328-10.582 59.578-1.666 6.082 12.666-13.166 36.33-45.08 39.746-12.165 1.25-18.581-3.166-20.164-4.916-1.667-1.75-1.917-1.833-2.583-1.5-1 .584-.334 2.167 0 3.083 1 2.333 4.916 6.5 11.582 8.583 5.833 1.833 20.081 2.833 37.33-3.5 19.331-7.083 34.496-26.914 30.08-43.496-4.583-16.831-33.913-22.414-61.66-12.998-16.5 5.582-34.33 14.331-47.246 25.83-15.249 13.582-17.748 25.498-16.665 30.414 3.5 17.582 28.997 29.08 39.163 37.58-.5.25-.917.5-1.417.75-5.083 2.416-24.497 12.082-29.33 22.331-5.5 11.582.833 19.915 5.082 20.998 13.083 3.5 26.498-2.75 33.747-12.999 7.25-10.332 6.416-23.664 3.083-29.747l-.166-.25 4-2.166c2.582-1.5 5.165-2.833 7.415-4-1.25 3.25-2.166 7.083-2.666 12.749-.5 6.583 2.333 15.082 6 18.415 1.666 1.5 3.666 1.5 4.832 1.5 4.333 0 6.25-3.417 8.416-7.5 2.666-4.916 5.083-10.665 5.083-10.665s-3 15.582 5.083 15.582c2.916 0 5.832-3.667 7.166-5.5v.083s.083-.166.25-.416c.333-.417.5-.667.5-.667v-.083c1.166-2 3.833-6.416 7.749-13.749 5-9.499 9.916-21.414 9.916-21.414s.416 2.916 1.916 7.665c.833 2.917 2.75 6 4.166 9-1.166 1.583-1.833 2.5-1.833 2.5v.083c-.916 1.166-2 2.416-3.083 3.75-4 4.499-8.832 9.748-9.416 11.248-.75 1.75-.583 3 .834 4.083 1.083.75 3 .917 5 .75 3.582-.25 6.082-1.083 7.332-1.583 2-.667 4.166-1.75 6.333-3.25 3.916-2.75 6.332-6.666 6.082-11.915-.083-2.833-1.083-5.666-2.25-8.416.334-.417.667-.917 1-1.5 6.25-8.583 11-18.082 11-18.082s.5 2.917 1.916 7.666c.75 2.417 2.25 5.083 3.583 7.75-5.833 4.5-9.5 9.749-10.75 13.165-2.249 6.333-.5 9.25 2.917 9.916 1.583.333 3.75-.417 5.416-1.084 2-.583 4.5-1.666 6.75-3.333 3.916-2.75 7.666-6.582 7.499-11.748-.083-2.417-.75-4.75-1.667-7 4.917-2 11.333-3.083 19.415-2.166 17.499 2 20.915 12.332 20.248 16.665-.666 4.333-4.333 6.75-5.5 7.5-1.249.666-1.582 1-1.499 1.499.167.75.667.75 1.75.583 1.5-.166 9.166-3.5 9.499-11.499.5-10.332-9.75-21.498-27.914-21.414zm-134.654 43.246c-5.75 6.083-13.832 8.333-17.332 6.416-3.75-2.083-2.25-10.916 4.833-17.332 4.333-3.916 9.916-7.499 13.582-9.665.834-.5 2.084-1.25 3.583-2.084.25-.166.417-.25.417-.25.25-.083.583-.333.917-.5 2.583 9.166.083 17.166-6 23.415zm42.163-27.33c-2 4.749-6.25 16.748-8.75 15.998-2.166-.5-3.499-9.583-.416-18.582 1.583-4.5 4.916-9.916 6.833-11.999 3.166-3.333 6.666-4.5 7.499-3.083 1 1.75-3.916 14.749-5.166 17.665zm34.83 15.914c-.833.417-1.667.667-2 .417-.25-.083.333-.667.333-.667s4.333-4.416 6.083-6.499c1-1.167 2.167-2.583 3.416-4.166v.416c0 5.417-5.416 9-7.832 10.5zm26.83-5.832c-.666-.5-.583-1.834 1.584-6.166.833-1.75 2.666-4.667 5.916-7.333.416 1.083.666 2.166.583 3.166 0 6.75-5 9.25-8.082 10.333zm0 0" fill="url(#l)" stroke="#212121" stroke-width="3" transform="matrix(.04688 0 0 .04688 0 10.08)"/></svg>
